64x64/apps/artscontrol.svg

<svg height="64" width="64" xmlns="http://www.w3.org/2000/svg"><path d="m4.05 32c-.011.335-.05.663-.05 1 0 15.512 12.488 28 28 28 15.51 0 27.998-12.488 27.998-28 0-.337-.04-.665-.05-1-.528 15.043-12.775 27-27.948 27-15.175 0-27.422-11.958-27.95-27z" opacity=".2"/><rect fill="#9d9d9d" height="56" rx="27.999" width="56" x="4" y="4"/><path d="m32 4.002c-15.512 0-28 12.486-28 27.998 0 .113.011.224.018.336.351-15.201 12.692-27.336 27.982-27.336s27.63 12.135 27.982 27.336c.007-.112.018-.223.018-.336a27.938 27.938 0 0 0 -28-27.998z" fill="#f4f4f7" opacity=".1"/><g transform="matrix(0 -1 -1 0 0 0)"><circle cx="-32" cy="-32" fill="#707070" r="22"/><circle cx="-32" cy="-32" fill="#17191e" r="16"/><circle cx="-33" cy="-32" opacity=".1" r="8"/><circle cx="-32" cy="-32" fill="#4f4f4f" r="8"/></g><path d="m32 24a8 8 0 0 0 -8 8 8 8 0 0 0 .021.424 8 8 0 0 1 7.979-7.424 8 8 0 0 1 7.979 7.576 8 8 0 0 0 .021-.576 8 8 0 0 0 -8-8z" fill="#f4f4f7" opacity=".1"/><circle cx="46" cy="47" opacity=".2" r="16"/><circle cx="46" cy="46" fill="#be53d1" r="16"/><path d="m43.928 38-.176 2.107a6.286 6.286 0 0 0 -1.838 1.063l-1.914-.902-2 3.464 1.738 1.207a6.286 6.286 0 0 0 -.095 1.061 6.286 6.286 0 0 0 .091 1.064l-1.734 1.206 2 3.462 1.91-.898a6.286 6.286 0 0 0 1.842 1.055l.176 2.111h4l.177-2.105a6.286 6.286 0 0 0 1.836-1.065l1.916.902 2-3.462-1.74-1.21a6.286 6.286 0 0 0 .098-1.06 6.286 6.286 0 0 0 -.092-1.064l1.734-1.204-2-3.462-1.912.898a6.286 6.286 0 0 0 -1.84-1.055l-.175-2.113h-4zm2.072 5a3 3 0 0 1 3 3 3 3 0 0 1 -3 3 3 3 0 0 1 -3-3 3 3 0 0 1 3-3z" fill="#f4f4f7"/></svg>

<svg xmlns="http://www.w3.org/2000/svg" width="64" height="64" version="1"><path style="opacity:.2" d="M4.05 32c-.011.335-.05.663-.05 1 0 15.512 12.488 28 28 28 15.51 0 27.998-12.488 27.998-28 0-.337-.04-.665-.05-1C59.42 47.043 47.173 59 32 59 16.825 59 4.578 47.042 4.05 32z"/><rect style="fill:#9d9d9d" width="56" height="56" x="4" y="4" rx="27.999" ry="27.999"/><path style="opacity:.1;fill:#f4f4f7" d="M32 4.002C16.488 4.002 4 16.488 4 32c0 .113.011.224.018.336C4.369 17.135 16.71 5 32 5s27.63 12.135 27.982 27.336c.007-.112.018-.223.018-.336A27.938 27.938 0 0 0 32 4.002z"/><circle style="fill:#707070" cx="-32" cy="-32" r="22" transform="matrix(0 -1 -1 0 0 0)"/><circle style="fill:#17191e" cx="-32" cy="-32" r="16" transform="matrix(0 -1 -1 0 0 0)"/><circle style="opacity:.1" cx="-33" cy="-32" r="8" transform="matrix(0 -1 -1 0 0 0)"/><circle style="fill:#4f4f4f" cx="-32" cy="-32" r="8" transform="matrix(0 -1 -1 0 0 0)"/><path style="fill:#f4f4f7;opacity:.1" d="M32 24a8 8 0 0 0-8 8 8 8 0 0 0 .021.424A8 8 0 0 1 32 25a8 8 0 0 1 7.979 7.576A8 8 0 0 0 40 32a8 8 0 0 0-8-8z"/><circle style="opacity:.2" cx="46" cy="47" r="16"/><circle style="fill:#be53d1" cx="46" cy="46" r="16"/><path style="fill:#f4f4f7" d="m43.928 38-.176 2.107a6.286 6.286 0 0 0-1.838 1.063L40 40.268l-2 3.464 1.738 1.207A6.286 6.286 0 0 0 39.643 46a6.286 6.286 0 0 0 .091 1.064L38 48.27l2 3.462 1.91-.898a6.286 6.286 0 0 0 1.842 1.055L43.928 54h4l.177-2.105a6.286 6.286 0 0 0 1.836-1.065l1.916.902 2-3.462-1.74-1.21a6.286 6.286 0 0 0 .098-1.06 6.286 6.286 0 0 0-.092-1.064l1.734-1.204-2-3.462-1.912.898a6.286 6.286 0 0 0-1.84-1.055L47.93 38h-4zM46 43a3 3 0 0 1 3 3 3 3 0 0 1-3 3 3 3 0 0 1-3-3 3 3 0 0 1 3-3z"/></svg>
